X: 196
M: 6/4
L: 1/4
K: C
c>Bc A>dc | B3 G2g | f>ef d>gf | e3 c>cd |\
e>de e>dc | g3 B2G | c>dB A>G^F | G3- G2 :|
|: e/f/ |\
g>fg g>ag | f>ef f>gf | e>de e>fe | d>^c d>ef |\
g>fe f>ed | g3 B2A | B2c d/c/BG | c3- c2 :|

